img/potion.svg

<svg width="100" height="100" viewBox="0 0 100 100" fill="none" xmlns="http://www.w3.org/2000/svg">
<path d="M54.0347 92.1324V31.6301C54.0347 29.2347 52.0929 27.293 49.6976 27.293H46.8785C44.4832 27.293 42.5414 29.2347 42.5414 31.6301V51.6942C42.5414 52.4716 42.3325 53.2347 41.9364 53.9037L20.6116 89.9228C18.9 92.8139 20.9839 96.4694 24.3437 96.4694H49.6976C52.0929 96.4694 54.0347 94.5277 54.0347 92.1324Z" fill="#403366"/>
<path d="M45.1437 92.1324V31.6301C45.1437 29.2347 47.0855 27.293 49.4808 27.293H52.2999C54.6952 27.293 56.637 29.2347 56.637 31.6301V51.6942C56.637 52.4716 56.8459 53.2347 57.242 53.9037L78.5667 89.9228C80.2784 92.8139 78.1945 96.4694 74.8347 96.4694H49.4808C47.0855 96.4694 45.1437 94.5277 45.1437 92.1324Z" fill="#403366"/>
<path d="M47.3122 96.4694V36.6177H51.6493V96.4694H47.3122Z" fill="#403366"/>
<rect x="36.0361" y="27.0781" width="27.3236" height="7.80675" rx="3.90337" fill="#403366"/>
<path d="M27.7872 88.9563L40.3728 64.375C41.5294 62.7125 44.84 60.3849 48.8301 64.375C51.7012 67.2461 54.6697 66.8462 56.7013 65.7767C57.7372 65.2313 59.1636 65.4168 59.7293 66.4417L72.1311 88.9086C72.7693 90.0648 71.933 91.4818 70.6123 91.4818H29.3314C28.0345 91.4818 27.1961 90.1107 27.7872 88.9563Z" fill="url(#paint0_linear)"/>
<circle cx="53.4922" cy="6.90337" r="3.90337" fill="#958FB2" fill-opacity="0.4"/>
<circle cx="44.2244" cy="15.2644" r="2.8191" fill="#958FB2" fill-opacity="0.7"/>
<circle cx="52.2993" cy="21.3072" r="1.95169" fill="#958FB2"/>
<mask id="mask0" mask-type="alpha" maskUnits="userSpaceOnUse" x="20" y="27" width="60" height="70">
<path d="M54.0347 92.1324V31.6301C54.0347 29.2347 52.0929 27.293 49.6976 27.293H46.8785C44.4832 27.293 42.5414 29.2347 42.5414 31.6301V51.6942C42.5414 52.4716 42.3325 53.2347 41.9364 53.9037L20.6116 89.9228C18.9 92.814 20.9839 96.4694 24.3437 96.4694H49.6976C52.0929 96.4694 54.0347 94.5277 54.0347 92.1324Z" fill="#403366"/>
<path d="M45.1437 92.1324V31.6301C45.1437 29.2347 47.0855 27.293 49.4808 27.293H52.2999C54.6952 27.293 56.637 29.2347 56.637 31.6301V51.6942C56.637 52.4716 56.8459 53.2347 57.242 53.9037L78.5667 89.9228C80.2784 92.814 78.1945 96.4694 74.8347 96.4694H49.4808C47.0855 96.4694 45.1437 94.5277 45.1437 92.1324Z" fill="#403366"/>
<path d="M47.3122 96.4694V36.6177H51.6493V96.4694H47.3122Z" fill="#403366"/>
</mask>
<g mask="url(#mask0)">
<path opacity="0.7" d="M53.6816 40.7734C53.6816 40.2519 53.2588 39.8291 52.7373 39.8291C52.2158 39.8291 51.793 40.2519 51.793 40.7734H53.6816ZM52.7373 54.8052H51.793C51.793 54.9857 51.8447 55.1624 51.9421 55.3144L52.7373 54.8052ZM56.6637 62.6876C56.945 63.1269 57.529 63.2549 57.9682 62.9736C58.4075 62.6924 58.5355 62.1083 58.2542 61.6691L56.6637 62.6876ZM51.793 40.7734V54.8052H53.6816V40.7734H51.793ZM51.9421 55.3144L56.6637 62.6876L58.2542 61.6691L53.5326 54.2959L51.9421 55.3144Z" fill="#5F5980"/>
</g>
<defs>
<linearGradient id="paint0_linear" x1="50.0228" y1="62.1719" x2="50.0228" y2="91.4818" gradientUnits="userSpaceOnUse">
<stop stop-color="#958FB2" stop-opacity="0"/>
<stop offset="1" stop-color="#958FB2"/>
</linearGradient>
</defs>
</svg>

<svg width="100" height="100" viewBox="0 0 100 100" fill="none" xmlns="http://www.w3.org/2000/svg"><path d="M54.035 92.132V31.63a4.337 4.337 0 00-4.337-4.337h-2.82a4.337 4.337 0 00-4.337 4.337v20.064a4.33 4.33 0 01-.605 2.21L20.612 89.923c-1.712 2.89.372 6.546 3.732 6.546h25.354a4.337 4.337 0 004.337-4.337z" fill="#403366"/><path d="M45.144 92.132V31.63a4.337 4.337 0 014.337-4.337H52.3a4.337 4.337 0 014.337 4.337v20.064c0 .778.209 1.54.605 2.21l21.325 36.019c1.711 2.89-.372 6.546-3.732 6.546H49.48a4.337 4.337 0 01-4.337-4.337z" fill="#403366"/><path d="M47.312 96.47V36.617h4.337v59.851h-4.337z" fill="#403366"/><rect x="36.036" y="27.078" width="27.324" height="7.807" rx="3.903" fill="#403366"/><path d="M27.787 88.956l12.586-24.581c1.156-1.663 4.467-3.99 8.457 0 2.871 2.871 5.84 2.471 7.871 1.402 1.036-.546 2.463-.36 3.028.665l12.402 22.467a1.735 1.735 0 01-1.519 2.573h-41.28a1.735 1.735 0 01-1.545-2.526z" fill="url(#paint0_linear)"/><circle cx="53.492" cy="6.903" r="3.903" fill="#958FB2" fill-opacity=".4"/><circle cx="44.224" cy="15.264" r="2.819" fill="#958FB2" fill-opacity=".7"/><circle cx="52.299" cy="21.307" r="1.952" fill="#958FB2"/><mask id="a" maskUnits="userSpaceOnUse" x="20" y="27" width="60" height="70"><path d="M54.035 92.132V31.63a4.337 4.337 0 00-4.337-4.337h-2.82a4.337 4.337 0 00-4.337 4.337v20.064a4.33 4.33 0 01-.605 2.21L20.612 89.923c-1.712 2.891.372 6.546 3.732 6.546h25.354a4.337 4.337 0 004.337-4.337z" fill="#403366"/><path d="M45.144 92.132V31.63a4.337 4.337 0 014.337-4.337H52.3a4.337 4.337 0 014.337 4.337v20.064c0 .778.209 1.54.605 2.21l21.325 36.019c1.711 2.891-.372 6.546-3.732 6.546H49.48a4.337 4.337 0 01-4.337-4.337z" fill="#403366"/><path d="M47.312 96.47V36.617h4.337v59.851h-4.337z" fill="#403366"/></mask><g mask="url(#a)"><path opacity=".7" d="M53.682 40.773a.944.944 0 00-1.889 0h1.889zm-.945 14.032h-.944c0 .18.052.357.15.51l.794-.51zm3.927 7.883a.944.944 0 101.59-1.019l-1.59 1.019zm-4.871-21.915v14.032h1.889V40.773h-1.889zm.15 14.541l4.72 7.374 1.591-1.019-4.721-7.373-1.59 1.018z" fill="#5F5980"/></g><defs><linearGradient id="paint0_linear" x1="50.023" y1="62.172" x2="50.023" y2="91.482" gradientUnits="userSpaceOnUse"><stop stop-color="#958FB2" stop-opacity="0"/><stop offset="1" stop-color="#958FB2"/></linearGradient></defs></svg>
